Galleries/Black and White Gallery/Heritage+Acres-2.xmp
<x:xmpmeta xmlns:x="adobe:ns:meta/" x:xmptk="Adobe XMP Core 7.0-c000 1.000000, 0000/00/00-00:00:00        ">
 <rdf:RDF xmlns:rdf="http://www.w3.org/1999/02/22-rdf-syntax-ns#">
  <rdf:Description rdf:about=""
    xmlns:aux="http://ns.adobe.com/exif/1.0/aux/"
    xmlns:dc="http://purl.org/dc/elements/1.1/"
    xmlns:photoshop="http://ns.adobe.com/photoshop/1.0/"
    xmlns:xmp="http://ns.adobe.com/xap/1.0/"
    xmlns:xmpMM="http://ns.adobe.com/xap/1.0/mm/"
    xmlns:stRef="http://ns.adobe.com/xap/1.0/sType/ResourceRef#"
    xmlns:stEvt="http://ns.adobe.com/xap/1.0/sType/ResourceEvent#"
    xmlns:crs="http://ns.adobe.com/camera-raw-settings/1.0/"
    xmlns:exif="http://ns.adobe.com/exif/1.0/"
    xmlns:tiff="http://ns.adobe.com/tiff/1.0/"
    xmlns:xmpDM="http://ns.adobe.com/xmp/1.0/DynamicMedia/"
   aux:ApproximateFocusDistance="186/25"
   aux:Firmware="1.1.2"
   aux:FlashCompensation="0/1"
   aux:ImageNumber="0"
   aux:Lens="EF70-200mm f/4L IS USM"
   aux:LensID="242"
   aux:LensInfo="70/1 200/1 0/0 0/0"
   aux:LensSerialNumber="000080d267"
   aux:SerialNumber="042123000770"
   dc:format="image/webp"
   photoshop:DateCreated="2012-06-21T11:28:11.00"
   photoshop:SidecarForExtension="WEBP"
   photoshop:EmbeddedXMPDigest="9A1E026BCE4A0A71EE71466FF07510D7"
   xmp:CreateDate="2012-06-21T11:28:11.00"
   xmp:CreatorTool="Adobe Photoshop Lightroom 4.1 (Windows)"
   xmp:MetadataDate="2026-09-17T00:01:35-07:00"
   xmp:ModifyDate="2012-08-31T13:39:55-07:00"
   xmpMM:DocumentID="xmp.did:423C8BBCABF3E11189F1B1D80033B1A7"
   xmpMM:InstanceID="xmp.iid:1866ac2f-89e9-3e45-a0bf-7b63d9c94344"
   xmpMM:OriginalDocumentID="945B1E0BABB567827271D93D8AAE756D"
   xmpMM:PreservedFileName="Heritage+Acres-2.webp"
   crs:AlreadyApplied="True"
   crs:AutoLateralCA="0"
   crs:Blacks2012="-87"
   crs:BlueHue="0"
   crs:BlueSaturation="0"
   crs:CameraProfile="Adobe Standard"
   crs:Clarity2012="+66"
   crs:ColorNoiseReduction="25"
   crs:ColorNoiseReductionDetail="50"
   crs:Contrast2012="0"
   crs:ConvertToGrayscale="True"
   crs:CropAngle="0"
   crs:CropBottom="1"
   crs:CropConstrainToWarp="0"
   crs:CropHeight="683"
   crs:CropLeft="0"
   crs:CropRight="0.870166"
   crs:CropTop="0.129834"
   crs:CropUnit="0"
   crs:CropWidth="1024"
   crs:Exposure2012="-0.47"
   crs:GrainAmount="0"
   crs:GrayMixerAqua="+100"
   crs:GrayMixerBlue="-75"
   crs:GrayMixerGreen="-59"
   crs:GrayMixerMagenta="0"
   crs:GrayMixerOrange="-100"
   crs:GrayMixerPurple="0"
   crs:GrayMixerRed="-48"
   crs:GrayMixerYellow="+91"
   crs:GreenHue="0"
   crs:GreenSaturation="0"
   crs:HasCrop="True"
   crs:HasSettings="True"
   crs:Highlights2012="-30"
   crs:LensManualDistortionAmount="0"
   crs:LensProfileEnable="0"
   crs:LensProfileSetup="LensDefaults"
   crs:LuminanceSmoothing="0"
   crs:ParametricDarks="0"
   crs:ParametricHighlightSplit="75"
   crs:ParametricHighlights="0"
   crs:ParametricLights="0"
   crs:ParametricMidtoneSplit="50"
   crs:ParametricShadowSplit="25"
   crs:ParametricShadows="0"
   crs:PerspectiveHorizontal="0"
   crs:PerspectiveRotate="0.0"
   crs:PerspectiveScale="100"
   crs:PerspectiveVertical="0"
   crs:PostCropVignetteAmount="-45"
   crs:PostCropVignetteFeather="73"
   crs:PostCropVignetteHighlightContrast="0"
   crs:PostCropVignetteMidpoint="50"
   crs:PostCropVignetteRoundness="+100"
   crs:PostCropVignetteStyle="1"
   crs:ProcessVersion="6.7"
   crs:RedHue="0"
   crs:RedSaturation="0"
   crs:ShadowTint="0"
   crs:Shadows2012="+13"
   crs:SharpenDetail="25"
   crs:SharpenEdgeMasking="0"
   crs:SharpenRadius="+1.0"
   crs:Sharpness="25"
   crs:SplitToningBalance="0"
   crs:SplitToningHighlightHue="0"
   crs:SplitToningHighlightSaturation="0"
   crs:SplitToningShadowHue="0"
   crs:SplitToningShadowSaturation="0"
   crs:Temperature="4450"
   crs:Tint="+49"
   crs:ToneCurveName2012="Linear"
   crs:Version="7.1"
   crs:VignetteAmount="0"
   crs:WhiteBalance="As Shot"
   crs:Whites2012="+47"
   crs:RawFileName="Heritage+Acres-2.webp"
   exif:ExifVersion="0231"
   exif:PixelXDimension="750"
   exif:PixelYDimension="500"
   tiff:Orientation="1"
   tiff:ImageWidth="750"
   tiff:ImageLength="500"
   xmpDM:pick="0">
   <dc:title>
    <rdf:Alt>
     <rdf:li xml:lang="x-default">Heritage Acres Foliage</rdf:li>
    </rdf:Alt>
   </dc:title>
   <dc:description>
    <rdf:Alt>
     <rdf:li xml:lang="x-default">Heritage Acres Foliage</rdf:li>
    </rdf:Alt>
   </dc:description>
   <xmpMM:DerivedFrom
    stRef:documentID="945B1E0BABB567827271D93D8AAE756D"
    stRef:originalDocumentID="945B1E0BABB567827271D93D8AAE756D"/>
   <xmpMM:History>
    <rdf:Seq>
     <rdf:li
      stEvt:action="derived"
      stEvt:parameters="converted from image/x-canon-cr2 to image/jpeg, saved to new location"/>
     <rdf:li
      stEvt:action="saved"
      stEvt:changed="/"
      stEvt:instanceID="xmp.iid:423C8BBCABF3E11189F1B1D80033B1A7"
      stEvt:softwareAgent="Adobe Photoshop Lightroom 4.1 (Windows)"
      stEvt:when="2012-08-31T13:39:55-07:00"/>
     <rdf:li
      stEvt:action="converted"
      stEvt:parameters="from image/jpeg to image/webp"/>
     <rdf:li
      stEvt:action="saved"
      stEvt:instanceID="xmp.iid:1866ac2f-89e9-3e45-a0bf-7b63d9c94344"
      stEvt:when="2026-09-17T00:01:35-07:00"
      stEvt:softwareAgent="Adobe Photoshop Lightroom Classic 15.5.1 (Windows)"
      stEvt:changed="/metadata"/>
    </rdf:Seq>
   </xmpMM:History>
   <crs:ToneCurvePV2012>
    <rdf:Seq>
     <rdf:li>0, 0</rdf:li>
     <rdf:li>255, 255</rdf:li>
    </rdf:Seq>
   </crs:ToneCurvePV2012>
   <crs:ToneCurvePV2012Blue>
    <rdf:Seq>
     <rdf:li>0, 0</rdf:li>
     <rdf:li>255, 255</rdf:li>
    </rdf:Seq>
   </crs:ToneCurvePV2012Blue>
   <crs:ToneCurvePV2012Green>
    <rdf:Seq>
     <rdf:li>0, 0</rdf:li>
     <rdf:li>255, 255</rdf:li>
    </rdf:Seq>
   </crs:ToneCurvePV2012Green>
   <crs:ToneCurvePV2012Red>
    <rdf:Seq>
     <rdf:li>0, 0</rdf:li>
     <rdf:li>255, 255</rdf:li>
    </rdf:Seq>
   </crs:ToneCurvePV2012Red>
  </rdf:Description>
 </rdf:RDF>
</x:xmpmeta>
