Galleries/Black and White Gallery/Heritage+Acres-1.xmp
<x:xmpmeta xmlns:x="adobe:ns:meta/" x:xmptk="Adobe XMP Core 7.0-c000 1.000000, 0000/00/00-00:00:00        ">
 <rdf:RDF xmlns:rdf="http://www.w3.org/1999/02/22-rdf-syntax-ns#">
  <rdf:Description rdf:about=""
    xmlns:aux="http://ns.adobe.com/exif/1.0/aux/"
    xmlns:dc="http://purl.org/dc/elements/1.1/"
    xmlns:photoshop="http://ns.adobe.com/photoshop/1.0/"
    xmlns:xmp="http://ns.adobe.com/xap/1.0/"
    xmlns:xmpMM="http://ns.adobe.com/xap/1.0/mm/"
    xmlns:stRef="http://ns.adobe.com/xap/1.0/sType/ResourceRef#"
    xmlns:stEvt="http://ns.adobe.com/xap/1.0/sType/ResourceEvent#"
    xmlns:crs="http://ns.adobe.com/camera-raw-settings/1.0/"
    xmlns:exif="http://ns.adobe.com/exif/1.0/"
    xmlns:tiff="http://ns.adobe.com/tiff/1.0/"
    xmlns:xmpDM="http://ns.adobe.com/xmp/1.0/DynamicMedia/"
   aux:ApproximateFocusDistance="67/25"
   aux:Firmware="1.1.2"
   aux:FlashCompensation="0/1"
   aux:ImageNumber="0"
   aux:Lens="EF70-200mm f/4L IS USM"
   aux:LensID="242"
   aux:LensInfo="70/1 200/1 0/0 0/0"
   aux:LensSerialNumber="000080d267"
   aux:SerialNumber="042123000770"
   dc:format="image/webp"
   photoshop:DateCreated="2012-06-21T11:14:22.00"
   photoshop:SidecarForExtension="WEBP"
   photoshop:EmbeddedXMPDigest="73C89A507153A87CC05AC9B0493B67B2"
   xmp:CreateDate="2012-06-21T11:14:22.00"
   xmp:CreatorTool="Adobe Photoshop Lightroom 4.1 (Windows)"
   xmp:MetadataDate="2026-09-17T00:01:34-07:00"
   xmp:ModifyDate="2012-08-31T13:39:48-07:00"
   xmpMM:DocumentID="xmp.did:413C8BBCABF3E11189F1B1D80033B1A7"
   xmpMM:InstanceID="xmp.iid:ef646ef8-9e28-714a-97ea-892bfb8ade37"
   xmpMM:OriginalDocumentID="94E8FC2D21A965828037C59AC6802432"
   xmpMM:PreservedFileName="Heritage+Acres-1.webp"
   crs:AlreadyApplied="True"
   crs:AutoLateralCA="0"
   crs:Blacks2012="-100"
   crs:BlueHue="0"
   crs:BlueSaturation="0"
   crs:CameraProfile="Adobe Standard"
   crs:Clarity2012="+28"
   crs:ColorNoiseReduction="25"
   crs:ColorNoiseReductionDetail="50"
   crs:Contrast2012="0"
   crs:ConvertToGrayscale="True"
   crs:Exposure2012="-0.19"
   crs:GrainAmount="0"
   crs:GrayMixerAqua="-17"
   crs:GrayMixerBlue="+4"
   crs:GrayMixerGreen="-28"
   crs:GrayMixerMagenta="+4"
   crs:GrayMixerOrange="-29"
   crs:GrayMixerPurple="+29"
   crs:GrayMixerRed="-21"
   crs:GrayMixerYellow="-38"
   crs:GreenHue="0"
   crs:GreenSaturation="0"
   crs:HasCrop="False"
   crs:HasSettings="True"
   crs:Highlights2012="+32"
   crs:LensManualDistortionAmount="0"
   crs:LensProfileEnable="0"
   crs:LensProfileSetup="LensDefaults"
   crs:LuminanceSmoothing="0"
   crs:ParametricDarks="-33"
   crs:ParametricHighlightSplit="75"
   crs:ParametricHighlights="+1"
   crs:ParametricLights="+3"
   crs:ParametricMidtoneSplit="50"
   crs:ParametricShadowSplit="25"
   crs:ParametricShadows="+37"
   crs:PerspectiveHorizontal="0"
   crs:PerspectiveRotate="0.0"
   crs:PerspectiveScale="100"
   crs:PerspectiveVertical="0"
   crs:PostCropVignetteAmount="0"
   crs:ProcessVersion="6.7"
   crs:RedHue="0"
   crs:RedSaturation="0"
   crs:ShadowTint="0"
   crs:Shadows2012="-100"
   crs:SharpenDetail="100"
   crs:SharpenEdgeMasking="0"
   crs:SharpenRadius="+0.8"
   crs:Sharpness="67"
   crs:SplitToningBalance="0"
   crs:SplitToningHighlightHue="0"
   crs:SplitToningHighlightSaturation="0"
   crs:SplitToningShadowHue="37"
   crs:SplitToningShadowSaturation="22"
   crs:Temperature="5700"
   crs:Tint="+8"
   crs:ToneCurveName2012="Linear"
   crs:Version="7.1"
   crs:VignetteAmount="0"
   crs:WhiteBalance="As Shot"
   crs:Whites2012="+9"
   crs:RawFileName="Heritage+Acres-1.webp"
   exif:ExifVersion="0231"
   exif:PixelXDimension="750"
   exif:PixelYDimension="500"
   tiff:Orientation="1"
   tiff:ImageWidth="750"
   tiff:ImageLength="500"
   xmpDM:pick="0">
   <dc:title>
    <rdf:Alt>
     <rdf:li xml:lang="x-default">Heritage Acres Gate</rdf:li>
    </rdf:Alt>
   </dc:title>
   <dc:description>
    <rdf:Alt>
     <rdf:li xml:lang="x-default">Heritage Acres Gate</rdf:li>
    </rdf:Alt>
   </dc:description>
   <xmpMM:DerivedFrom
    stRef:documentID="94E8FC2D21A965828037C59AC6802432"
    stRef:originalDocumentID="94E8FC2D21A965828037C59AC6802432"/>
   <xmpMM:History>
    <rdf:Seq>
     <rdf:li
      stEvt:action="derived"
      stEvt:parameters="converted from image/x-canon-cr2 to image/jpeg, saved to new location"/>
     <rdf:li
      stEvt:action="saved"
      stEvt:changed="/"
      stEvt:instanceID="xmp.iid:413C8BBCABF3E11189F1B1D80033B1A7"
      stEvt:softwareAgent="Adobe Photoshop Lightroom 4.1 (Windows)"
      stEvt:when="2012-08-31T13:39:48-07:00"/>
     <rdf:li
      stEvt:action="converted"
      stEvt:parameters="from image/jpeg to image/webp"/>
     <rdf:li
      stEvt:action="saved"
      stEvt:instanceID="xmp.iid:ef646ef8-9e28-714a-97ea-892bfb8ade37"
      stEvt:when="2026-09-17T00:01:34-07:00"
      stEvt:softwareAgent="Adobe Photoshop Lightroom Classic 15.5.1 (Windows)"
      stEvt:changed="/metadata"/>
    </rdf:Seq>
   </xmpMM:History>
   <crs:ToneCurvePV2012>
    <rdf:Seq>
     <rdf:li>0, 0</rdf:li>
     <rdf:li>255, 255</rdf:li>
    </rdf:Seq>
   </crs:ToneCurvePV2012>
   <crs:ToneCurvePV2012Blue>
    <rdf:Seq>
     <rdf:li>0, 0</rdf:li>
     <rdf:li>255, 255</rdf:li>
    </rdf:Seq>
   </crs:ToneCurvePV2012Blue>
   <crs:ToneCurvePV2012Green>
    <rdf:Seq>
     <rdf:li>0, 0</rdf:li>
     <rdf:li>255, 255</rdf:li>
    </rdf:Seq>
   </crs:ToneCurvePV2012Green>
   <crs:ToneCurvePV2012Red>
    <rdf:Seq>
     <rdf:li>0, 0</rdf:li>
     <rdf:li>255, 255</rdf:li>
    </rdf:Seq>
   </crs:ToneCurvePV2012Red>
  </rdf:Description>
 </rdf:RDF>
</x:xmpmeta>
